<jittershader name="2 Pass Blur"> 
	<param name="amount" type="float" default="1." />
	<language name="glsl" version="1.0"> 
		<bind param="tex0" program="fp" />
		<bind param="amount" program="fp" />
		<program name="vp" type="vertex" source="v001.film-bleachbypass.vp.glsl" />
		<program name="fp" type="fragment" source="v001.film-bleachbypass.fp.glsl" /> 
	</language> 
</jittershader> 
