<jittershader name="2 Pass Blur"> 
	<param name="radius" type="float" default="1." />
	<param name="origin" type="vec2" default="-0.5 -0.5" />
	<language name="glsl" version="1.0"> 
		<bind param="tex0" program="fp" />
		<bind param="radius" program="vp" />
		<bind param="origin" program="fp" />
		<program name="vp" type="vertex" source="v001.lighttunnel.vp.glsl" />
		<program name="fp" type="fragment" source="v001.lighttunnel.fp.glsl" /> 
	</language>
</jittershader> 
